svg/fluentui-system-icons/ic_fluent_cast_20_regular.svg

<svg width="20" height="20" viewBox="0 0 20 20" fill="none" xmlns="http://www.w3.org/2000/svg">
<path d="M2 5.5C2 4.67157 2.67157 4 3.5 4H16.5C17.3284 4 18 4.67157 18 5.5V14.5C18 15.3284 17.3284 16 16.5 16H3.5C2.67157 16 2 15.3284 2 14.5V5.5ZM3.5 5C3.22386 5 3 5.22386 3 5.5V14.5C3 14.7761 3.22386 15 3.5 15H16.5C16.7761 15 17 14.7761 17 14.5V5.5C17 5.22386 16.7761 5 16.5 5H3.5ZM5.4989 13.2495C5.4989 13.6634 5.16336 13.9989 4.74945 13.9989C4.33554 13.9989 4 13.6634 4 13.2495C4 12.8355 4.33554 12.5 4.74945 12.5C5.16336 12.5 5.4989 12.8355 5.4989 13.2495ZM3.9973 10.5C3.9973 10.2239 4.22116 10 4.4973 10C6.43169 10 7.99982 11.5681 7.99982 13.5025C7.99982 13.7787 7.77596 14.0025 7.49982 14.0025C7.22368 14.0025 6.99982 13.7787 6.99982 13.5025C6.99982 12.1204 5.87941 11 4.4973 11C4.22116 11 3.9973 10.7761 3.9973 10.5ZM3.99731 8C3.99731 7.72386 4.22117 7.5 4.49731 7.5C7.81251 7.5 10.5 10.1875 10.5 13.5027C10.5 13.7788 10.2761 14.0027 10 14.0027C9.72386 14.0027 9.5 13.7788 9.5 13.5027C9.5 10.7398 7.26022 8.5 4.49731 8.5C4.22117 8.5 3.99731 8.27614 3.99731 8Z" fill="#212121"/>
</svg>

<svg xmlns="http://www.w3.org/2000/svg" width="20" height="20"><path d="M2 5.5A1.5 1.5 0 0 1 3.5 4h13A1.5 1.5 0 0 1 18 5.5v9a1.5 1.5 0 0 1-1.5 1.5h-13A1.5 1.5 0 0 1 2 14.5v-9ZM3.5 5a.5.5 0 0 0-.5.5v9a.5.5 0 0 0 .5.5h13a.5.5 0 0 0 .5-.5v-9a.5.5 0 0 0-.5-.5h-13Zm1.999 8.25a.75.75 0 1 1-1.499 0 .75.75 0 0 1 1.499 0ZM3.997 10.5a.5.5 0 0 1 .5-.5A3.502 3.502 0 0 1 8 13.502a.5.5 0 1 1-1 0A2.503 2.503 0 0 0 4.497 11a.5.5 0 0 1-.5-.5Zm0-2.5a.5.5 0 0 1 .5-.5 6.003 6.003 0 0 1 6.003 6.003.5.5 0 0 1-1 0A5.003 5.003 0 0 0 4.497 8.5a.5.5 0 0 1-.5-.5Z"/></svg>
